!!!COM:	la Rue, Pierre de
!!!CDT:	~1452///-1518/11/20
!!!OPR:	Missa Almana
!!!ONM:	4
!!!OTL:	Sanctus
!!!AGN:	Mass; Sanctus
!!!SCT:	Rue1002d
!!!SCA:	Rue1002d
!!!voices:	4
!!!voices-OPR:	4
**kern	**kern	**kern	**kern
*staff4	*staff3	*staff2	*staff1
*Ivox	*Ivox	*Ivox	*Ivox
*I"Bassus	*I"Tenor	*I"Contra	*I"Discantus
*I'B	*I'T	*I'C	*I'D
*>[A,B,C,D,E]	*>[A,B,C,D,E]	*>[A,B,C,D,E]	*>[A,B,C,D,E]
*>A	*>A	*>A	*>A
*clefF4	*clefGv2	*clefGv2	*clefG2
*k[b-]	*k[b-]	*k[b-]	*k[b-]
*M2/1	*M2/1	*M2/1	*M2/1
*met(C|)	*met(O)	*met(C|)	*met(C|)
!!primary-mensuration: met(C|)
!!incipit: 4
!!section: Sanctus
!!!OMD: Sanctus
*	*rscale:1/2	*	*
=1-	=1-	=1-	=1-
!	!LO:N:vis=0.	!	!
0FF	0r	1.F	0r
.	.	4E/	.
.	.	4F/	.
=2	=2-	=2	=2
1BB-	0ryy	2G/	0r
.	.	1F	.
1BB-	.	.	.
.	.	4E/	.
.	.	4D/	.
=3	=3-	=3	=3
1AA	0ryy	2F/	0c
.	.	4E/	.
.	.	4D/	.
1AA	.	2C/	.
.	.	[2A/	.
=4	=4	=4	=4
!	!LO:N:vis=0.	!	!
1D	0r	2A/]	1f
.	.	4G/	.
.	.	4A/	.
1D	.	2B-\	1f
.	.	[2A/	.
=5	=5-	=5	=5
1C	0ryy	2A/]	1e
.	.	4G/	.
.	.	4F/	.
2r	.	2A/	1e
[2C/	.	4G/	.
.	.	4F/	.
=6	=6-	=6	=6
2C/]	0ryy	1E	1a
4BB-/	.	.	.
4C/	.	.	.
2D\	.	2r	1a
[2C/	.	[2E/	.
=|7	=7	=7	=7
!	!LO:N:vis=0.	!	!
2C/]	0r	2E/]	1.g
4BB-/	.	2.G/	.
4AA/	.	.	.
1GG	.	.	.
.	.	4A/	.
.	.	2B-\	4f/
.	.	.	4g/
=8	=8-	=8	=8
1r	0ryy	2.c\	2a/
.	.	.	1g
.	.	4B-\	.
1C	.	2.G/	.
.	.	.	4f/
.	.	4A/	4e/
=9	=9-	=9	=9
2BB-/	0ryy	2.B-\	2g/
1BB-	.	.	4f/
.	.	4A/	4e/
.	.	2.F/	2d/
4AA/	.	.	[2a/
4GG/	.	4G/	.
=10	=10	=10	=10
!	!LO:N:vis=0	!	!
0FF	[y0C	2.A/	2a/]
.	.	.	4g/
.	.	4F/	4a/
.	.	1F	2b-\
.	.	.	[2a/
=11	=11-	=11	=11
0FF	0C]yy	2r	2a/]
.	.	1c	4g/
.	.	.	4f/
.	.	.	2a/
.	.	4B-\	4g/
.	.	4A/	4f/
=12	=12-	=12	=12
2AA/	0C	2c\	2e/
2FF/	.	4B-\	1f
.	.	4A/	.
1C	.	1G	.
.	.	.	2e/
=13	=13	=13	=13
!	!LO:N:vis=0	!	!
0FF	[y0F	2F/	0f
.	.	1c	.
.	.	4B-\	.
.	.	4c\	.
=14	=14-	=14	=14
2r	0F]yy	2d\	2r
1F	.	4c\	1a
.	.	4B-\	.
.	.	1A	.
2E\	.	.	4g/
.	.	.	4a/
=15	=15-	=15	=15
2D\	0F	1d	2b-\
4C/	.	.	1a
4BB-/	.	.	.
1AA	.	2r	.
.	.	[2c\	4g/
.	.	.	4f/
=16	=16	=16	=16
!	!LO:N:vis=0	!	!
1AA	[y0E	2c\]	1a
.	.	1c	.
[1AA	.	.	1e
.	.	4B-\	.
.	.	4A/	.
=17	=17-	=17	=17
1AA]	0E]yy	2c\	2r
.	.	4B-\	2.e/
.	.	4A/	.
1C	.	1G	.
.	.	.	4f/
.	.	.	2g/
=18	=18-	=18	=18
2D\	0A	2F/	2f/
2C/	.	2E/	2e/
2AA/	.	2.F/	2c/
2BB-/	.	.	2d/
.	.	4G/	.
=19	=19	=19	=19
2.C/	0G	1E	2e/
.	.	.	2c/
4AA/	.	.	.
2BB-/	.	2r	2d/
2C/	.	2E/	2e/
=20	=20-	=20	=20
1FF	0c	2.F/	2A/
.	.	.	2a/
.	.	4E/	.
2r	.	2C/	2g/
2C/	.	2G/	2e/
=21	=21-	=21	=21
2D\	0B-	2r	2f/
2.E-\	.	2.G/	2.g/
4F\	.	4A/	4f/
2G\	.	2B-\	2d/
=22	=22	=22	=22
!	!LO:N:vis=0.	!	!
1C	[y0c	2G/	2.e/
.	.	2.c\	.
.	.	.	4f/
2r	.	.	2g/
.	.	4d\	.
2C/	.	2e\	[2a/
=23	=23-	=23	=23
2AA/	0c_yy	2c\	4a/]
.	.	.	4e/
2FF/	.	1f	1a
1C	.	.	.
.	.	2e\	2g/
=24	=24-	=24	=24
0FF	0c]yy	1f	0a
.	.	2r	.
.	.	2F/	.
=25	=25	=25	=25
!	!LO:N:vis=0.	!	!
1.BB-	0r	2G/	1r
.	.	2.F/	.
.	.	.	[1f
.	.	4G/	.
4AA/	.	4A/	.
4GG/	.	4B-\	.
=26	=26-	=26	=26
2AA/	0ryy	1.c	2f/]
2BB-/	.	.	4e/
.	.	.	4d/
[1C	.	.	2e/
.	.	4B-\	2f/
.	.	4A/	.
=27	=27-	=27	=27
2C/]	0ryy	2G/	1.g
4BB-/	.	1B-	.
4AA/	.	.	.
2BB-/	.	.	.
2C/	.	4A/	4f/
.	.	4G/	4e/
=28	=28	=28	=28
2D\	0A	2.F/	2f/
4C/	.	.	2g/
4BB-/	.	4D/	.
1AA	.	2E/	2a/
.	.	2F/	4g/
.	.	.	4f/
=29	=29-	=29	=29
0GG	0B-	0G	1e
.	.	.	[1d
=30	=30-	=30	=30
0r	1.B-	0d	2d/]
.	.	.	2r
.	.	.	[1f
.	4A/L	.	.
.	4G/J	.	.
=31	=31	=31	=31
0r	2A/	0r	2f/]
.	2B-\	.	4e/
.	.	.	4d/
!	!LO:N:vis=2.	!	!
.	[y1c	.	2e/
.	.	.	2f/
=32	=32-	=32	=32
0r	2c\]yy	0r	1.g
.	4B-\L	.	.
.	4A/J	.	.
.	2B-\	.	.
.	2c\	.	4f/
.	.	.	4e/
=33	=33-	=33	=33
0r	2d\	0r	2f/
.	2B-\	.	2g/
.	2c\	.	2a/
!	!LO:N:vis=4.	!	!
.	[2d\	.	[2b-\
=34	=34	=34	=34
1r	4d\]L	0r	4b-\]
.	4c\	.	4a/
.	4B-\	.	1a
.	4A/J	.	.
1GG	1B-	.	.
.	.	.	2g/
=35	=35-	=35	=35
1.D	0A	1r	0a
.	.	[1A	.
4C/	.	.	.
4BB-/	.	.	.
=36	=36-	=36	=36
2C/	0r	2A/]	0r
2D\	.	4G/	.
.	.	4F/	.
[1E-	.	2G/	.
.	.	2A/	.
=37	=37	=37	=37
!	!LO:N:vis=0.	!	!
2E-\]	0r	1.B-	0r
4D\	.	.	.
4C/	.	.	.
2D\	.	.	.
2Eni\	.	4A/	.
.	.	4G/	.
=38	=38-	=38	=38
2F\	0ryy	2A/	0r
2D\	.	2.B-\	.
1C	.	.	.
.	.	4A/	.
.	.	4A/	.
.	.	4G/	.
=39	=39-	=39	=39
0BB-	0ryy	1.B-	2r
.	.	.	1d
.	.	4A/	4c/
.	.	4G/	4B-/
=40	=40	=40	=40
!	!LO:N:vis=0.	!	!
2r	0r	2B-\	2d/
2C/	.	4A/	2e/
.	.	4G/	.
2D\	.	2F/	2f/
2C/	.	2G/	2e/
=41	=41-	=41	=41
2D\	0ryy	2F/	2.f/
2BB-/	.	2D/	.
.	.	.	4g/
1C	.	1G	1e
=42	=42-	=42	=42
0BB-	0ryy	2r	2r
.	.	1B-	1d
.	.	4A/	4c/
.	.	4G/	4B-/
=43	=43	=43	=43
2r	0r	2B-\	2d/
2C/	.	4A/	2e/
.	.	4G/	.
2D\	.	2F/	2f/
2C/	.	2G/	2e/
=44	=44-	=44	=44
2D\	0A	2F/	2.f/
2BB-/	.	2D/	.
.	.	.	4g/
1C	.	1E	1e
=45	=45-	=45	=45
0BB-	0B-	1F	0d
.	.	1G	.
=46	=46	=46	=46
0AA	[0c	0A	1r
.	.	.	[1e
=47	=47-	=47	=47
1r	0c_	1r	2e/]
.	.	.	2e/
[1C	.	2r	1e
.	.	2A/	.
=48	=48-	=48	=48
2C/]	0c_	2G/	2r
2C/	.	2.c\	2a/
1C	.	.	2g/
.	.	4B-\	.
.	.	[2A/	[2cc\
=49	=49	=49	=49
0r	0c]	4A/]	4cc\]
.	.	4G/	4b-\
.	.	1F	2a/
.	.	.	1g
.	.	2E/	.
=50	=50-	=50	=50
!	!LO:N:vis=0	!	!
2r	[y0A	1F	2r
2D\	.	.	2f/
2C/	.	1r	2e/
[2F\	.	.	[2a/
=51	=51-	=51	=51
4F\]	0A]yy	1D	4a/]
4E\	.	.	4g/
2D\	.	.	2f/
1C	.	1E	1e
=52	=52	=52	=52
0BB-	1.B-	1.F	2.d/
.	.	.	4e/
.	.	.	2f/
.	4A/L	4E/	2g/
.	4G/J	4D/	.
=53	=53-	=53	=53
2r	2A/	2F/	2f/
2BB-/	2B-\	2G/	2d/
2AA/	2c\	2C/	2e/
!	!LO:N:vis=4.	!	!
[2D\	[y2B-\	[2F/	2d/
=54	=54-	=54	=54
4D\]	4B-\]yy	4F/]	2f/
4C/	4A/	4E/	.
2BB-/	1G	1D	2g/
1AA	.	.	1a
.	2F#i/	2C/	.
=55	=55	=55	=55
1GG	1G	1D	2.b-\
.	.	.	8a/L
.	.	.	8g/J
2r	2r	1r	2a/
2G\	2G/	.	2b-\
=56	=56-	=56	=56
2F\	2A/	0r	2cc\
1G	2G/	.	2.b-\
.	2B-\	.	.
.	.	.	4a/
2C/	2c\	.	[2g/
=57	=57-	=57	=57
1D	1A	1d	2g/]
.	.	.	2f/
1r	1r	2.e-\	1g
.	.	8d\L	.
.	.	8c\J	.
=58	=58	=58	=58
!	!LO:N:vis=1.	!	!
2r	0r	2d\	2r
2C/	.	2e-i\	2c/
2BB-/	.	2f\	2d/
[2C/	.	[2e-i\	2c/
=59	=59-	=59	=59
2C/]	1ryy	4e-\]	2e/
.	.	4d\	.
2FF/	.	1c	2f/
1GG	1G	.	1d
.	.	2Bni\	.
=60	=60-	=60	=60
0C	2A/	[0cl	1c
.	1G	.	.
.	.	.	2r
.	2E/	.	2g/
=61	=61	=61	=61
2r	2F/	0c_	2a/
1C	2G/	.	1g
.	2E/	.	.
!	!LO:N:vis=4.	!	!
2C/	[y2A/	.	2e/
=62	=62-	=62	=62
2FF/	2A/]yy	0c_	2f/
2.C/	2G/	.	2g/
.	2A/	.	2e/
4BB-/	.	.	.
4AA/	2F/	.	[2a/
4GG/	.	.	.
=63	=63-	=63	=63
2FF/	2.c\	0c_	2a/]
1C	.	.	2g/
.	4B-\	.	.
.	4A/L	.	2.a/
.	4G/J	.	.
2FF/	[2A/	.	.
.	.	.	4f/
=64	=64	=64	=64
2r	2A/]	0c_	2.cc\
1C	4G/L	.	.
.	4F/J	.	4b-\
.	1E	.	4a/
.	.	.	4g/
2C/	.	.	[2a/
=65	=65-	=65	=65
2FF/	2F/	0c_	2a/]
2.C/	2A/	.	4g/
.	.	.	4f/
.	2G/	.	2e/
4BB-/	.	.	.
4AA/	2F/	.	[2a/
4GG/	.	.	.
=66	=66-	=66	=66
1FF	1A	0c_	4a/]
.	.	.	4g/
.	.	.	1f
1C	1G	.	.
.	.	.	2e/
=67	=67	=67	=67
!	!LO:N:vis:00	!	!
0FFl	0Fl	0c]	0fl
!!LO:LB:i:g=z
*	*rscale:1	*	*
=68||	=68||	=68||	=68||
*>B	*>B	*>B	*>B
*clefF4	*clefGv2	*clefGv2	*clefG2
*k[b-]	*k[b-]	*k[b-]	*k[b-]
*M2/1	*M2/1	*M2/1	*M2/1
*met(C|)	*met(C|)	*met(C|)	*met(C|)
!!section: Pleni sunt celi
!!!OMD: Pleni sunt celi
[0F	0r	0c	0r
=69	=69	=69	=69
0F]	0r	1d	0r
.	.	[1c	.
=70	=70	=70	=70
0G	0r	2c\]	0r
.	.	4B-\	.
.	.	4A/	.
.	.	1B-	.
=71	=71	=71	=71
1.F	0r	1A	0r
.	.	2r	.
4E\	.	[2d\	.
4D\	.	.	.
=72	=72	=72	=72
1E	0r	4d\]	0r
.	.	4B-\	.
.	.	2c\	.
1D	.	2F/	.
.	.	2B-\	.
=73	=73	=73	=73
2r	0r	2A/	0r
2.G\	.	2B-\	.
.	.	1G	.
4F\	.	.	.
[2E\	.	.	.
=74	=74	=74	=74
2E\]	0r	2r	0r
4D\	.	2c\	.
4C/	.	.	.
2.D\	.	2B-\	.
.	.	[2A/	.
4E\	.	.	.
=75	=75	=75	=75
2C/	0r	2A/]	0r
2F\	.	4G/	.
.	.	4F/	.
2E\	.	2G/	.
[2D\	.	2A/	.
=76	=76	=76	=76
2D\]	0r	2F/	0r
4C/	.	2B-\	.
4BB-/	.	.	.
2C/	.	2.A/	.
[2D\	.	.	.
.	.	4F/	.
=77	=77	=77	=77
4D\]	0r	2G/	0r
4BB-/	.	.	.
2C/	.	2C/	.
2FF/	.	2r	.
[2C/	.	2G/	.
=78	=78	=78	=78
2C/]	0r	2A/	0r
4BB-/	.	2.B-\	.
4AA/	.	.	.
2BB-/	.	.	.
.	.	4A/	.
2C/	.	[2G/	.
=79	=79	=79	=79
1FF	0r	2G/]	0r
.	.	1F	.
1GG	.	.	.
.	.	2E/	.
=80	=80	=80	=80
0FF	0r	1F	1r
.	.	2r	1c
.	.	[2A/	.
=81	=81	=81	=81
0r	0r	2A/]	2c/
.	.	2.B-\	2.d/
.	.	4A/	4c/
.	.	[2A/	2A/
=82	=82	=82	=82
0r	0r	2A/]	1B-
.	.	2G/	.
.	.	1A	1A
=83	=83	=83	=83
0r	0r	1c	2r
.	.	.	1a
.	.	2c\	.
.	.	[2d\	[2b-\
=84	=84	=84	=84
0r	0r	4d\]	4b-\]
.	.	4c\	4a/
.	.	2A/	1a
.	.	1B-	.
.	.	.	2g/
=85	=85	=85	=85
2r	0r	1A	1a
1C	.	.	.
.	.	2A/	1r
[2D\	.	[2B-\	.
=86	=86	=86	=86
4D\]	0r	4B-\]	1r
4C/	.	4A/	.
2AA/	.	1A	.
1BB-	.	.	1d
.	.	2G/	.
=87	=87	=87	=87
0AA	0r	0A	1c
.	.	.	2c/
.	.	.	2e/
=88	=88	=88	=88
2r	0r	0r	2f/
2GG/	.	.	1g
2BB-/	.	.	.
2C/	.	.	2g/
=89	=89	=89	=89
1D	0r	0r	2f/
.	.	.	2a/
2D\	.	.	2b-\
2C/	.	.	[2cc\
=90	=90	=90	=90
2E\	0r	2r	2cc\]
2F\	.	2A/	2a/
1G	.	2G/	2b-\
.	.	2B-\	2g/
=91	=91	=91	=91
2r	0r	2c\	2a/
1B-	.	1d	2f/
.	.	.	1g
2G\	.	2B-\	.
=92	=92	=92	=92
2A\	0r	2c\	2f/
1F	.	2A/	1a
.	.	2B-\	.
2E\	.	2G/	[2g/
=93	=93	=93	=93
2F\	0r	2A/	2g/]
2D\	.	2F/	1f
1C	.	1G	.
.	.	.	2e/
=94	=94	=94	=94
2r	0r	2F/	1f
2AA/	.	2.A/	.
2BB-/	.	.	1r
.	.	4G/	.
2GG/	.	[2G/	.
=95	=95	=95	=95
2AA/	0r	4G/]	0r
.	.	4F/	.
2FF/	.	1F	.
1GG	.	.	.
.	.	2E/	.
=96	=96	=96	=96
[0FF	0r	1F	0f
.	.	2r	.
.	.	[2c\	.
=97	=97	=97	=97
0FF]	0r	4c\]	0f
.	.	4B-\	.
.	.	4A/	.
.	.	4G/	.
.	.	[1F	.
=98	=98	=98	=98
2r	0r	2F/]	0g
2.C/	.	4E/	.
.	.	4D/	.
.	.	1E	.
4BB-/	.	.	.
4AA/	.	.	.
4GG/	.	.	.
=99	=99	=99	=99
0FF	0r	0F	2r
.	.	.	2.a/
.	.	.	4g/
.	.	.	4f/
.	.	.	4e/
=100	=100	=100	=100
2r	0r	1F	2d/
2D\	.	.	2f/
2C/	.	1G	2e/
2BB-/	.	.	[2d/
=101	=101	=101	=101
1D	0r	1F	2d/]
.	.	.	2f/
2C/	.	1G	2e/
2BB-/	.	.	2d/
=102	=102	=102	=102
1F	0r	1A	2r
.	.	.	2a/
2r	.	1B-	2g/
[2D\	.	.	[2f/
=103	=103	=103	=103
2D\]	0r	1A	2f/]
2F\	.	.	2a/
2E\	.	1B-	2g/
[2D\	.	.	2f/
=104	=104	=104	=104
2D\]	0r	1A	2r
4C/	.	.	2.cc\
4BB-/	.	.	.
1AA	.	[1c	.
.	.	.	4b-\
.	.	.	[2a/
=105	=105	=105	=105
2r	0r	0c]	2a/]
1C	.	.	4g/
.	.	.	4f/
.	.	.	2e/
4BB-/	.	.	[2g/
4AA/	.	.	.
=106	=106	=106	=106
2GG/	0r	0r	2g/]
1C	.	.	4f/
.	.	.	4e/
.	.	.	1d
2BBni/	.	.	.
=107	=107	=107	=107
1C	0r	2r	1c
.	.	1c	.
2r	.	.	1r
[2G\	.	4B-\	.
.	.	4A/	.
=108	=108	=108	=108
2G\]	0r	2G/	0r
4F\	.	1c	.
4E\	.	.	.
1D	.	.	.
.	.	2Bni\	.
=109	=109	=109	=109
0C	0r	2c\	1r
.	.	2G/	.
.	.	2A/	2r
.	.	[2G/	[2e/
=110	=110	=110	=110
0r	0r	4G/]	2e/]
.	.	4E/	.
.	.	4F/	2d/
.	.	4G/	.
.	.	2A/	2c/
.	.	[2G/	[2e/
=111	=111	=111	=111
0r	0r	2G/]	2e/]
.	.	1c	4d/
.	.	.	4c/
.	.	.	1d
.	.	2Bni\	.
=112	=112	=112	=112
0r	0r	1c	2c/
.	.	.	2g/
.	.	2r	2a/
.	.	[2e\	[2g/
=113	=113	=113	=113
0r	0r	2e\]	4g/]
.	.	.	4e/
.	.	2d\	4f/
.	.	.	4g/
.	.	2c\	2a/
.	.	[2e\	[2g/
=114	=114	=114	=114
1r	0r	2e\]	2g/]
.	.	4d\	2cc\
.	.	4c\	.
2r	.	1d	2r
2G\	.	.	2b-\
=115	=115	=115	=115
2.A\	0r	0c	2.cc\
4G\	.	.	4b-\
2F\	.	.	2a/
2E\	.	.	2g/
=116	=116	=116	=116
1D	0r	1r	1f
1C	.	2r	1e
.	.	2c\	.
=117	=117	=117	=117
2BB-/	0r	2.d\	0r
2D\	.	.	.
.	.	4c\	.
2E\	.	2B-\	.
[2F\	.	2A/	.
=118	=118	=118	=118
2F\]	0r	1G	2r
2E\	.	.	2g/
2.F\	.	2F/	2.a/
.	.	2A/	.
4E\	.	.	4g/
=119	=119	=119	=119
2D\	0r	2B-\	2f/
2C/	.	1c	2e/
1G	.	.	1d
.	.	2Bni\	.
=120	=120	=120	=120
1C	0r	1c	[0c
2r	.	2r	.
[2A\	.	[2F/	.
=121	=121	=121	=121
2A\]	0r	2F/]	0c]
2G\	.	2E/	.
1A	.	1F	.
=122	=122	=122	=122
1G	0r	1C	[0c
2r	.	2r	.
[2F\	.	[2A/	.
=123	=123	=123	=123
2F\]	0r	2A/]	0c]
2E\	.	2G/	.
1F	.	1A	.
=124	=124	=124	=124
0C	0r	0G	[0cl
=125	=125	=125	=125
0Cl	0r	0Gl	0c]
!!LO:LB:i:g=z
=126||	=126||	=126||	=126||
*>C	*>C	*>C	*>C
*clefF4	*clefGv2	*clefGv2	*clefG2
*k[b-]	*k[b-]	*k[b-]	*k[b-]
*M2/1	*M2/1	*M2/1	*M2/1
*met(C|)	*met(C|)	*met(C|)	*met(C|)
!!section: Osanna
!!!OMD: Osanna
0D	0A	0d	0f
=127	=127	=127	=127
0BB-	0B-	0d	0f
=128	=128	=128	=128
0C;	0G;	0c;	0e;
=129	=129	=129	=129
1r	[0E	0G	[0g
[1C	.	.	.
=130	=130	=130	=130
2C/]	0E]	2.G/	0g]
4BB-/	.	.	.
4AA/	.	4A/	.
2GG/	.	2B-\	.
2C/	.	[2c\	.
=131	=131	=131	=131
1FF	[0F	4c\]	[0a
.	.	4B-\	.
.	.	4A/	.
.	.	4G/	.
2r	.	1A	.
[2D\	.	.	.
=132	=132	=132	=132
2D\]	0F]	2.A/	0a]
4C/	.	.	.
4BB-/	.	4B-\	.
2AA/	.	2c\	.
2D\	.	[2d\	.
=133	=133	=133	=133
0GG	[0G	4d\]	1b-
.	.	4c\	.
.	.	4B-\	.
.	.	4A/	.
.	.	[1B-	2b-\
.	.	.	[2g/
=134	=134	=134	=134
0BB-	0G]	1B-]	2g/]
.	.	.	4f/
.	.	.	4e/
.	.	1B-	2d/
.	.	.	2g/
=135	=135	=135	=135
[0AA	[0A	2c\	1c
.	.	2F/	.
.	.	2E/	2r
.	.	[2F/	[2a/
=136	=136	=136	=136
0AA]	0A]	2F/]	2a/]
.	.	4E/	4g/
.	.	4D/	4f/
.	.	4C/	2e/
.	.	4D/	.
.	.	4E/	2a/
.	.	4F/	.
=137	=137	=137	=137
0r	0B-	2G/	1d
.	.	4F/	.
.	.	4E/	.
.	.	2D/	2r
.	.	2G/	2d/
=138	=138	=138	=138
1r	[0c	2.C/	2.e/
.	.	4D/	4f/
2r	.	2E/	2g/
2FF/	.	[2F/	2c/
=139	=139	=139	=139
2.AA/	0c]	2F/]	1c
.	.	4E/	.
4BB-/	.	4D/	.
2.C/	.	2E/	2r
.	.	[2F/	2c/
4FF/	.	.	.
=140	=140	=140	=140
0FF	0A	4F/]	2.f/
.	.	4G/	.
.	.	2.A/	.
.	.	.	4g/
.	.	.	2a/
.	.	4D/	.
.	.	[2D/	2d/
=141	=141	=141	=141
1r	1.B-	2D/]	1d
.	.	1G	.
2r	.	.	1r
2FF/	2A/	2F/	.
=142	=142	=142	=142
2.BB-/	1G	2G/	0r
.	.	2B-\	.
4C/	.	.	.
2.D\	1F	2c\	.
.	.	[2d\	.
4GG/	.	.	.
=143	=143	=143	=143
0GG	0G	4d\]	1r
.	.	4G/	.
.	.	1G	.
.	.	.	2r
.	.	[2B-\	2d/
=144	=144	=144	=144
1r	1r	4B-\]	2.g/
.	.	4A/	.
.	.	2.G/	.
.	.	.	4a/
1BB-	1G	.	1b-
.	.	4F/	.
.	.	4E/	.
.	.	4D/	.
=145	=145	=145	=145
1AA	1A	2E/	1.cc
.	.	2.A/	.
2.AA/	[1c	.	.
.	.	4G/	.
.	.	[2A/	[2a/
4BB-/	.	.	.
=146	=146	=146	=146
2C/	1c]	4A/]	4a/]
.	.	4G/	4b-\
2AA/	.	2.A/	2cc\
2C/	1c	.	2a/
.	.	4G/	.
2AA/	.	2A/	2cc\
=147	=147	=147	=147
2.GG/	0d	2D/	2b-\
.	.	2.G/	2.g/
4AA/	.	.	.
2BB-/	.	.	.
.	.	4F/	4a/
2GG/	.	[2G/	2b-\
=148	=148	=148	=148
2BB-/	1B-	4G/]	2g/
.	.	4F/	.
2GG/	.	2G/	2b-\
2FF/	1c	2C/	2a/
2C/	.	[2c\	[2g/
=149	=149	=149	=149
1D	2A/	2c\]	2g/]
.	2F/	2B-\	1f
1C	1G	1c	.
.	.	.	2e/
=150	=150	=150	=150
0FFl	0Fl	0cl	0fl
!!LO:LB:i:g=z
!!LO:TX:rj:i:Y=40:t=fine
=151||	=151||	=151||	=151||
*>D	*>D	*>D	*>D
*clefF4	*clefGv2	*clefGv2	*clefG2
*k[b-]	*k[b-]	*k[b-]	*k[b-]
*M2/1	*M2/1	*M2/1	*M2/1
*met(C|)	*met(C|)	*met(C|)	*met(C|)
!!section: Benedictus
!!!OMD: Benedictus
1FF	[0F	0r	0r
2FF/	.	.	.
4GG/	.	.	.
4AA/	.	.	.
=152	=152	=152	=152
2BB-/	1F]	0r	0r
1AA	.	.	.
.	[1A	.	.
4GG/	.	.	.
4FF/	.	.	.
=153	=153	=153	=153
1C	2A/]	0r	0r
.	4G/	.	.
.	4F/	.	.
2C/	[1G	.	.
2BB-/	.	.	.
=154	=154	=154	=154
2C/	1G]	0r	0r
1E-	.	.	.
.	1B-	.	.
[2D\	.	.	.
=155	=155	=155	=155
2D\]	1.A	0r	0r
2C/	.	.	.
2D\	.	.	.
[2F\	4G/	.	.
.	4F/	.	.
=156	=156	=156	=156
2F\]	1.A	0r	0r
4E\	.	.	.
4D\	.	.	.
1C	.	.	.
.	4B-\	.	.
.	4c\	.	.
=157	=157	=157	=157
2BB-/	1d	0r	0r
1F	.	.	.
.	2r	.	.
2E\	[2c\	.	.
=158	=158	=158	=158
1D	2c\]	0r	0r
.	2B-\	.	.
2r	1A	.	.
[2C/	.	.	.
=159	=159	=159	=159
2C/]	2r	0r	0r
2BB-/	1G	.	.
1AA	.	.	.
.	2F/	.	.
=160	=160	=160	=160
1GG	1E	0r	0r
2r	1D	.	.
2BB-/	.	.	.
=161	=161	=161	=161
2C/	2r	0r	0r
2D\	2F/	.	.
2E-i\	2G/	.	.
[2D\	2A/	.	.
=162	=162	=162	=162
2D\]	2B-\	0r	0r
2C/	1A	.	.
1BB-	.	.	.
.	2G/	.	.
=163	=163	=163	=163
2AA/	2A/	0r	0r
2F\	1d	.	.
2G\	.	.	.
2A\	2c\	.	.
=164	=164	=164	=164
2B-\	4d\	0r	0r
.	4c\	.	.
1A	4B-\	.	.
.	4A/	.	.
.	1B-	.	.
2G\	.	.	.
=165	=165	=165	=165
2A\	1A	0r	0r
1F	.	.	.
.	2r	.	.
2D\	2F/	.	.
=166	=166	=166	=166
1E	1G	0r	0r
2F\	1A	.	.
2D\	.	.	.
=167	=167	=167	=167
2.G\	1B-	0r	0r
4F\	.	.	.
4E\	1c	.	.
4D\	.	.	.
[2C/	.	.	.
=168	=168	=168	=168
2C/]	1F	0r	0r
1F	.	.	.
.	1G	.	.
2E\	.	.	.
=169	=169	=169	=169
1F	1F	0r	0r
1FF	2r	.	.
.	2C/	.	.
=170	=170	=170	=170
2r	2D/	0r	0r
2GG/	1E	.	.
1AA	.	.	.
.	[2F/	.	.
=171	=171	=171	=171
1BB-	4F/]	0r	0r
.	4D/	.	.
.	4G/	.	.
.	4F/	.	.
1C	4E/	.	.
.	4D/	.	.
.	[2C/	.	.
=172	=172	=172	=172
1FF	2C/]	0r	0r
.	1F	.	.
1GG	.	.	.
.	2E/	.	.
=173	=173	=173	=173
0FFl	0Fl	0r	0r
!!LO:LB:i:g=z
=174||	=174||	=174||	=174||
*>E	*>E	*>E	*>E
*clefF4	*clefGv2	*clefGv2	*clefG2
*k[b-]	*k[b-]	*k[b-]	*k[b-]
*M2/1	*M2/1	*M2/1	*M2/1
*met(C|)	*met(C|)	*met(C|)	*met(C|)
!!section: In nomine Domini
!!!OMD: In nomine Domini
0r	0r	1F	0r
.	.	2F/	.
.	.	4G/	.
.	.	4A/	.
=175	=175	=175	=175
0r	0r	2B-\	1f
.	.	1A	.
.	.	.	2f/
.	.	4G/	4g/
.	.	4F/	4a/
=176	=176	=176	=176
0r	0r	2G/	2b-\
.	.	2F/	1a
.	.	1c	.
.	.	.	4g/
.	.	.	4f/
=177	=177	=177	=177
0r	0r	2B-\	2g/
.	.	1A	2f/
.	.	.	1cc
.	.	4G/	.
.	.	4F/	.
=178	=178	=178	=178
0r	0r	2G/	2b-\
.	.	2F/	1a
.	.	2.A/	.
.	.	.	4g/
.	.	4G/	4f/
=179	=179	=179	=179
0r	0r	2E/	2g/
.	.	2D/	2f/
.	.	2.F/	2.a/
.	.	4E/	4g/
=180	=180	=180	=180
0r	0r	2C/	2e/
.	.	2.D/	2d/
.	.	.	2.f/
.	.	4C/	.
.	.	[2AA/	.
.	.	.	4e/
=181	=181	=181	=181
0r	0r	2AA/]	1c
.	.	1A	.
.	.	.	2c/
.	.	[2B-\	[2d/
=182	=182	=182	=182
0r	0r	4B-\]	4d/]
.	.	4A/	4c/
.	.	1A	2A/
.	.	.	1B-
.	.	2G/	.
=183	=183	=183	=183
0r	0r	1A	2A/
.	.	.	2f/
.	.	2B-\	2g/
.	.	[2c\	[2a/
=184	=184	=184	=184
0r	0r	4c\]	4a/]
.	.	4B-\	4g/
.	.	4A/	1g
.	.	4G/	.
.	.	1A	.
.	.	.	2f/
=185	=185	=185	=185
0r	0r	2G/	2g/
.	.	2B-\	2d/
.	.	2c\	2e/
.	.	[2d\	[2f/
=186	=186	=186	=186
0r	0r	4d\]	4f/]
.	.	4c\	4e/
.	.	1c	4d/
.	.	.	4c/
.	.	.	1d
.	.	2Bni\	.
=187	=187	=187	=187
0r	0r	2c\	2c/
.	.	2G/	2e/
.	.	2A/	2f/
.	.	[2B-\	[2g/
=188	=188	=188	=188
0r	0r	4B-\]	4g/]
.	.	4A/	4f/
.	.	4G/	1f
.	.	4F/	.
.	.	1G	.
.	.	.	2e/
=189	=189	=189	=189
0r	0r	0Fl	0fl
!!LO:TX:i:Y=40:rj:t=Osanna ut supra
=||	=||	=||	=||
*-	*-	*-	*-
!!!RDF**kern: l=long note in original notation
!!!RDF**kern: i=editorial accidental
!!!ENC:	Chris Gage 11-16-2012
!!!END:	2012/11/18/
!!!EED:	Jesse Rodin
!!!EEV:	2012/12/15/
!!!ONB:	Translated from MusicXML and edited on 2012/12/15/ by Craig Sapp
!!muse2ps: T^@{OPR}^u^@{ONM}{. }@{OTL}^C^@{COM}^i2I150v85,85,85,150Q8c140
